X: 26310
T: Memories Of Sligo
R: barndance
M: 4/4
K: Amajor
|:e>^d|(3efe f>e c2 A>e|f2 B2 B2- B>c|(3dcB (3AGF E>e^d>e|f<e^d>e c2 A>d|
e2 f>e c2 A>e|f2 B2 B2- B>c|(3dcB (3AGF E>dc>B|1 A2 a2 a2:|2 A2 a2 a4||
K: Dmaj
|:(3fgf d2 d>fa>f|b2 e2 e>fg>f|(3efe c2 c2 a2|a>fd>f a2 a2|
f2 d2 d>fa>f|b2 e2 e>fg>f|(3efe c2 (3BcB A2|1 A>gf>e d2- d>a:|2 A>gf>e d2||

